assets/img/components/accordion-header.svg

<svg width="579" height="145" viewBox="0 0 579 145" fill="none" xmlns="http://www.w3.org/2000/svg">
<path d="M538.206 145H433.081C433.081 64.9187 498 0 578.081 0V105.125C578.081 127.147 560.228 145 538.206 145Z" fill="#286AD8"/>
<path d="M183.505 145C161.732 145 144.081 127.148 144.081 105.125V0H434.081V145H183.505Z" fill="#286AD8"/>
<path d="M145 0C64.9792 0 0.109528 64.9062 0.109528 144.972L0 145H145V0Z" fill="#286AD8"/>
<g style="mix-blend-mode:multiply" opacity="0.45">
<mask id="mask0_1220_1603" style="mask-type:alpha" maskUnits="userSpaceOnUse" x="144" y="0" width="291" height="145">
<path d="M183.505 145C161.732 145 144.081 127.148 144.081 105.125V0H434.081V145H183.505Z" fill="#286AD8"/>
</mask>
<g mask="url(#mask0_1220_1603)">
<path d="M450.06 161.658H234.394C234.393 161.656 234.391 161.655 234.389 161.653L197.323 124.521C196.559 123.884 196.06 122.918 196.06 121.821V110.692C196.06 108.771 197.561 107.213 199.413 107.213H215.637C215.601 107.172 215.566 107.131 215.533 107.087L206.267 97.8044C205.715 97.3844 205.353 96.7264 205.353 95.9783C205.353 94.708 206.38 93.6783 207.648 93.6783H212.387L206.267 87.5373C205.715 87.1173 205.353 86.4592 205.353 85.7111C205.353 85.5098 205.387 85.3181 205.435 85.132L197.323 76.966C196.559 76.3285 196.06 75.3625 196.06 74.2661V63.1363C196.06 61.2154 197.561 59.6582 199.413 59.6582H346.928C347.945 59.6582 348.844 60.1374 349.459 60.8785L450.06 161.658Z" fill="#1745B4"/>
</g>
</g>
<path d="M346.107 107H199.375C197.534 107 196.041 108.546 196.041 110.453V121.505C196.041 123.412 197.534 124.958 199.375 124.958H346.107C347.949 124.958 349.442 123.412 349.442 121.505V110.453C349.442 108.546 347.949 107 346.107 107Z" fill="#5187DF"/>
<path d="M338.062 114.759L333.845 119.076C333.662 119.264 333.448 119.358 333.204 119.358C332.959 119.358 332.745 119.264 332.562 119.076L328.345 114.759C328.177 114.587 328.093 114.368 328.093 114.102C328.093 113.836 328.177 113.617 328.345 113.445C328.513 113.273 328.727 113.187 328.987 113.187C329.246 113.187 329.46 113.273 329.629 113.445L333.204 117.105L336.779 113.445C336.947 113.273 337.161 113.187 337.42 113.187C337.681 113.187 337.894 113.273 338.062 113.445C338.23 113.617 338.314 113.836 338.314 114.102C338.314 114.368 338.23 114.587 338.062 114.759Z" fill="#1545BB"/>
<path d="M205.284 115.979C205.284 114.718 206.306 113.695 207.567 113.695H312.155C313.416 113.695 314.438 114.718 314.438 115.979C314.438 117.24 313.416 118.263 312.155 118.263H207.567C206.306 118.263 205.284 117.24 205.284 115.979Z" fill="#1545BB"/>
<path d="M345.067 59.373H198.335C196.493 59.373 195 60.9192 195 62.8265V73.8776C195 75.7849 196.493 77.3311 198.335 77.3311H345.067C346.908 77.3311 348.401 75.7849 348.401 73.8776V62.8265C348.401 60.9192 346.908 59.373 345.067 59.373Z" fill="#5187DF"/>
<path d="M327.304 70.1593L331.521 65.8419C331.704 65.6542 331.918 65.5603 332.162 65.5603C332.407 65.5603 332.621 65.6542 332.804 65.8419L337.021 70.1593C337.189 70.3314 337.273 70.5504 337.273 70.8163C337.273 71.0823 337.189 71.3013 337.021 71.4734C336.853 71.6454 336.639 71.7314 336.379 71.7314C336.12 71.7314 335.906 71.6454 335.738 71.4734L332.162 67.8129L328.587 71.4734C328.419 71.6454 328.205 71.7314 327.946 71.7314C327.685 71.7314 327.472 71.6454 327.304 71.4734C327.136 71.3013 327.052 71.0823 327.052 70.8163C327.052 70.5504 327.136 70.3314 327.304 70.1593Z" fill="#1545BB"/>
<path d="M204.243 68.352C204.243 67.0908 205.265 66.0684 206.527 66.0684H311.114C312.375 66.0684 313.398 67.0908 313.398 68.352C313.398 69.6132 312.375 70.6356 311.114 70.6356H206.527C205.265 70.6356 204.243 69.6132 204.243 68.352Z" fill="#1545BB"/>
<path d="M204.243 85.2416C204.243 83.9804 205.265 82.958 206.527 82.958H266.38C267.641 82.958 268.663 83.9804 268.663 85.2416C268.663 86.5028 267.641 87.5252 266.38 87.5252H206.527C205.265 87.5252 204.243 86.5028 204.243 85.2416Z" fill="#5187DF"/>
<path d="M204.243 95.436C204.243 94.1748 205.265 93.1523 206.527 93.1523H249.316C250.577 93.1523 251.6 94.1748 251.6 95.436C251.6 96.6972 250.577 97.7196 249.316 97.7196H206.527C205.265 97.7196 204.243 96.6972 204.243 95.436Z" fill="#5187DF"/>
</svg>

<svg xmlns="http://www.w3.org/2000/svg" width="579" height="145" fill="none" viewBox="0 0 579 145"><path fill="#286ad8" d="M538.206 145H433.081c0-80.081 64.919-145 145-145v105.125c0 22.022-17.853 39.875-39.875 39.875"/><path fill="#286ad8" d="M183.505 145c-21.773 0-39.424-17.852-39.424-39.875V0h290v145z"/><path fill="#286ad8" d="M145 0C64.98 0 .11 64.906.11 144.972L0 145h145z"/><g opacity=".45" style="mix-blend-mode:multiply"><mask id="a" width="291" height="145" x="144" y="0" maskUnits="userSpaceOnUse" style="mask-type:alpha"><path fill="#286ad8" d="M183.505 145c-21.773 0-39.424-17.852-39.424-39.875V0h290v145z"/></mask><g mask="url(#a)"><path fill="#1745b4" d="M450.06 161.658H234.394l-.005-.005-37.066-37.132a3.5 3.5 0 0 1-1.263-2.7v-11.129c0-1.921 1.501-3.479 3.353-3.479h16.224a2 2 0 0 1-.104-.126l-9.266-9.283a2.29 2.29 0 0 1-.914-1.826c0-1.27 1.027-2.3 2.295-2.3h4.739l-6.12-6.14a2.29 2.29 0 0 1-.914-1.827c0-.201.034-.393.082-.579l-8.112-8.166a3.5 3.5 0 0 1-1.263-2.7v-11.13c0-1.92 1.501-3.478 3.353-3.478h147.515c1.017 0 1.916.48 2.531 1.22z"/></g></g><path fill="#5187df" d="M346.107 107H199.375c-1.841 0-3.334 1.546-3.334 3.453v11.052c0 1.907 1.493 3.453 3.334 3.453h146.732c1.842 0 3.335-1.546 3.335-3.453v-11.052c0-1.907-1.493-3.453-3.335-3.453"/><path fill="#1545bb" d="m338.062 114.759-4.217 4.317a.87.87 0 0 1-1.283 0l-4.217-4.317a.9.9 0 0 1-.252-.657q0-.399.252-.657a.86.86 0 0 1 .642-.258q.388 0 .642.258l3.575 3.66 3.575-3.66a.86.86 0 0 1 .641-.258q.39 0 .642.258a.9.9 0 0 1 .252.657.9.9 0 0 1-.252.657M205.284 115.979a2.284 2.284 0 0 1 2.283-2.284h104.588a2.284 2.284 0 0 1 0 4.568H207.567a2.284 2.284 0 0 1-2.283-2.284"/><path fill="#5187df" d="M345.067 59.373H198.335c-1.842 0-3.335 1.546-3.335 3.454v11.05c0 1.908 1.493 3.454 3.335 3.454h146.732c1.841 0 3.334-1.546 3.334-3.453V62.827c0-1.908-1.493-3.454-3.334-3.454"/><path fill="#1545bb" d="m327.304 70.16 4.217-4.318a.87.87 0 0 1 1.283 0l4.217 4.317a.9.9 0 0 1 .252.657.9.9 0 0 1-.252.657.86.86 0 0 1-.642.258.86.86 0 0 1-.641-.258l-3.576-3.66-3.575 3.66a.86.86 0 0 1-.641.258.86.86 0 0 1-.642-.258.9.9 0 0 1-.252-.657q0-.399.252-.657M204.243 68.352a2.283 2.283 0 0 1 2.284-2.284h104.587a2.284 2.284 0 0 1 0 4.568H206.527a2.283 2.283 0 0 1-2.284-2.284"/><path fill="#5187df" d="M204.243 85.242a2.283 2.283 0 0 1 2.284-2.284h59.853a2.283 2.283 0 0 1 0 4.567h-59.853a2.283 2.283 0 0 1-2.284-2.283M204.243 95.436a2.284 2.284 0 0 1 2.284-2.284h42.789a2.284 2.284 0 0 1 0 4.568h-42.789a2.283 2.283 0 0 1-2.284-2.284"/></svg>
